X:1948
T:Sleeping Giant Two-Step
C:Andy De Jarlis
M:2/4
L:1/8
R:Canadian Two-Step
Z:abc by Bruce Osborne, modified  by Peter Yarensky.
Z:<http://tunes.nhcountrydance.com>.
K:D
Ad\
|: "D" f3/2g/ fd | A z F z | "A7" GG/G/ GF | E3 F |
   "A7" GG/G/ GF | EA, DE  | "D" F3/2G/ FE | F2 Ad|
   "D" f3/2g/ fd | A z F z | "A7" GG/G/ GF | E3 F |
   "A7" GG/G/ GA | c3/2A/ Bc| "D" d2 d3/2d/|1 d2 Ad:|2 dd "D7" c=c|]
|: "G" B2 d2 | g3 g | "D" f3/2g/ fd | AF Ad |
   "A7" e2 e3/2f/| ec BA | "D" dd FG | Ad "D7" c=c|
   "G" B2 d2|g3 g| "D" f3/2g/ fd | "D" AF "B7" GF|
   "Em7" E3 F | "A7"G3/2A/ Bc | "D" d2 d3/2d/|1 "D" dd "D7" c=c:|2 "D" d3 |]


